svgs/duotone/waffle.svg

<svg xmlns="http://www.w3.org/2000/svg" viewBox="0 0 512 512"><!--! Font Awesome Pro 6.1.1 by @fontawesome - https://fontawesome.com License - https://fontawesome.com/license (Commercial License) Copyright 2022 Fonticons, Inc. --><defs><style>.fa-secondary{opacity:.4}</style></defs><path class="fa-primary" d="M416 272c8.844 0 16-7.156 16-16S424.8 240 416 240h-48v-64H416c8.844 0 16-7.156 16-16S424.8 144 416 144h-48V96c0-8.844-7.156-16-16-16S336 87.16 336 96v48h-64V96c0-8.844-7.156-16-16-16S240 87.16 240 96v48h-64V96c0-8.844-7.156-16-16-16S144 87.16 144 96v48H96C87.16 144 80 151.2 80 160S87.16 176 96 176h48v64H96C87.16 240 80 247.2 80 256S87.16 272 96 272h48v64H96c-8.844 0-16 7.156-16 16s7.156 16 16 16h48V416c0 8.844 7.156 16 16 16s16-7.156 16-16v-48h64V416c0 8.844 7.156 16 16 16s16-7.156 16-16v-48h64V416c0 8.844 7.156 16 16 16s16-7.156 16-16v-48H416c8.844 0 16-7.156 16-16s-7.156-16-16-16h-48v-64H416zM336 176v64l-63.1 .0004L272 176H336zM176 176h64l.0012 64L176 240V176zM176 336v-64l64 .0004L240 336H176zM336 336h-64l.0012-63.1L336 272V336z"/><path class="fa-secondary" d="M176 176v64h64L240 176H176zM272 336h64v-64h-63.1L272 336zM176 336h64l.002-64H176V336zM511.7 225.4c-13.94-118.7-106.7-211.2-225.5-225.1c-10.49-1.242-21.1 1.08-30.16 6.346C246.9 1.406 236.3-.9219 225.8 .334C106.1 14.21 14.26 106.8 .3184 225.4c-1.221 10.55 1.096 21.1 6.359 30.12C1.414 264.6-.9023 275.1 .3184 285.7c14.38 122.6 114.3 217.7 237.7 226.2C238.9 511.1 239.8 512 240.7 512C245.1 512 251.1 510.7 256 508.6C260.9 510.7 266 512 271.3 512c.875 0 1.75-.0313 2.625-.0938c123.4-8.5 223.3-103.6 237.7-226.2c1.221-10.54-1.094-21.08-6.357-30.11C510.6 246.5 512.9 235.1 511.7 225.4zM416 240c8.844 0 16 7.156 16 16S424.8 272 416 272h-48v64H416c8.844 0 16 7.156 16 16s-7.156 16-16 16h-48V416c0 8.844-7.156 16-16 16s-16-7.156-16-16v-48h-64V416c0 8.844-7.156 16-16 16S240 424.8 240 416v-48h-64V416c0 8.844-7.156 16-16 16S144 424.8 144 416v-48H96c-8.844 0-16-7.156-16-16s7.156-16 16-16h48v-64H96C87.16 272 80 264.8 80 256S87.16 240 96 240h48v-64H96C87.16 176 80 168.8 80 160S87.16 144 96 144h48V96c0-8.844 7.156-16 16-16S176 87.16 176 96v48h64V96c0-8.844 7.156-16 16-16s16 7.156 16 16v48h64V96c0-8.844 7.156-16 16-16s16 7.156 16 16v48H416c8.844 0 16 7.156 16 16S424.8 176 416 176h-48v64H416zM272 240H336v-64h-64L272 240z"/></svg>

<svg xmlns="http://www.w3.org/2000/svg" viewBox="0 0 512 512"><!--! Font Awesome Pro 6.5.1 by @fontawesome - https://fontawesome.com License - https://fontawesome.com/license (Commercial License) Copyright 2023 Fonticons, Inc. --><defs><style>.fa-secondary{opacity:.4}</style></defs><path class="fa-secondary" d="M0 256a256 256 0 1 1 512 0A256 256 0 1 1 0 256zM160 80c-8.8 0-16 7.2-16 16v48H96c-8.8 0-16 7.2-16 16s7.2 16 16 16h48v64H64c-8.8 0-16 7.2-16 16s7.2 16 16 16h80v64H96c-8.8 0-16 7.2-16 16s7.2 16 16 16h48v48c0 8.8 7.2 16 16 16s16-7.2 16-16V368h64v80c0 8.8 7.2 16 16 16s16-7.2 16-16V368h64v48c0 8.8 7.2 16 16 16s16-7.2 16-16V368h48c8.8 0 16-7.2 16-16s-7.2-16-16-16H368V272h80c8.8 0 16-7.2 16-16s-7.2-16-16-16H368V176h48c8.8 0 16-7.2 16-16s-7.2-16-16-16H368V96c0-8.8-7.2-16-16-16s-16 7.2-16 16v48H272V64c0-8.8-7.2-16-16-16s-16 7.2-16 16v80H176V96c0-8.8-7.2-16-16-16zm16 256V272h64v64H176zm96 0V272h64v64H272zm64-160v64H272V176h64zm-96 0v64H176V176h64z"/><path class="fa-primary" d="M272 64c0-8.8-7.2-16-16-16s-16 7.2-16 16v80l-64 0V96c0-8.8-7.2-16-16-16s-16 7.2-16 16v48H96c-8.8 0-16 7.2-16 16s7.2 16 16 16h48v64H64c-8.8 0-16 7.2-16 16s7.2 16 16 16h80v64H96c-8.8 0-16 7.2-16 16s7.2 16 16 16h48v48c0 8.8 7.2 16 16 16s16-7.2 16-16V368h64v80c0 8.8 7.2 16 16 16s16-7.2 16-16V368h64v48c0 8.8 7.2 16 16 16s16-7.2 16-16V368h48c8.8 0 16-7.2 16-16s-7.2-16-16-16H368V272h80c8.8 0 16-7.2 16-16s-7.2-16-16-16H368V176h48c8.8 0 16-7.2 16-16s-7.2-16-16-16H368V96c0-8.8-7.2-16-16-16s-16 7.2-16 16v48l-64 0V64zm64 272H272V272h64v64zm-96 0H176V272h64v64zm0-96H176V176l64 0v64zm96 0H272V176h64v64z"/></svg>
